svg/script_outline.svg

<svg xmlns="http://www.w3.org/2000/svg" viewBox="0 0 24 24"><path d="M15 20a1 1 0 0 0 1-1V4H8a1 1 0 0 0-1 1v11H5V5a3 3 0 0 1 3-3h11a3 3 0 0 1 3 3v1h-2V5a1 1 0 0 0-1-1 1 1 0 0 0-1 1v14a3 3 0 0 1-3 3H5a3 3 0 0 1-3-3v-1h11a2 2 0 0 0 2 2"/></svg>

<?xml version="1.0" encoding="UTF-8"?><!DOCTYPE svg PUBLIC "-//W3C//DTD SVG 1.1//EN" "http://www.w3.org/Graphics/SVG/1.1/DTD/svg11.dtd"><svg xmlns="http://www.w3.org/2000/svg" xmlns:xlink="http://www.w3.org/1999/xlink" version="1.1" id="mdi-script-outline" width="24" height="24" viewBox="0 0 24 24"><path d="M15,20A1,1 0 0,0 16,19V4H8A1,1 0 0,0 7,5V16H5V5A3,3 0 0,1 8,2H19A3,3 0 0,1 22,5V6H20V5A1,1 0 0,0 19,4A1,1 0 0,0 18,5V9L18,19A3,3 0 0,1 15,22H5A3,3 0 0,1 2,19V18H13A2,2 0 0,0 15,20Z" /></svg>
